build/flags/Ethiopia.svg

<svg xmlns="http://www.w3.org/2000/svg" fill="none" viewBox="0 0 28 28" focusable="false"><defs><filter id="Ethiopia_svg__a"><feColorMatrix values="0 0 0 0 1 0 0 0 0 1 0 0 0 0 1 0 0 0 1 0"/></filter></defs><mask id="Ethiopia_svg__b" width="28" height="20" x="0" y="4" maskUnits="userSpaceOnUse"><g filter="url(#Ethiopia_svg__a)"><rect width="28" height="20" y="4" fill="#FFF" rx="3"/><rect width="28" height="20" y="4" stroke="#969696" stroke-opacity="0" stroke-width="0" rx="3"/></g></mask><path fill="none" d="M0 0H28V28H0z"/><rect width="28" height="20" y="4" fill="#FFF" rx="3"/><rect width="28" height="20" y="4" rx="3"/><g mask="url(#Ethiopia_svg__b)"><path fill="#20AA46" fill-rule="evenodd" d="M0 10.6667L28 10.6667L28 4L0 4L0 10.6667Z"/><path d="M28 10.6667L28 4L0 4L0 10.6667L28 10.6667Z"/><path fill="#E92F3B" fill-rule="evenodd" d="M0 24L28 24L28 17.3334L0 17.3334L0 24Z"/><path d="M28 24L28 17.3334L0 17.3334L0 24L28 24Z"/><path fill="#FADF50" fill-rule="evenodd" d="M0 17.3333L28 17.3333L28 10.6666L0 10.6666L0 17.3333Z"/><path d="M28 17.3333L28 10.6666L0 10.6666L0 17.3333L28 17.3333Z"/><path fill="#205CCA" fill-rule="evenodd" d="M14 18.6667C16.5773 18.6667 18.6667 16.5774 18.6667 14C18.6667 11.4227 16.5773 9.33337 14 9.33337C11.4227 9.33337 9.33334 11.4227 9.33334 14C9.33334 16.5774 11.4227 18.6667 14 18.6667Z"/><path d="M18.6667 14C18.6667 11.4227 16.5773 9.33337 14 9.33337C11.4227 9.33337 9.33334 11.4227 9.33334 14C9.33334 16.5774 11.4227 18.6667 14 18.6667C16.5773 18.6667 18.6667 16.5774 18.6667 14Z"/><path fill="none" d="M14 15.3L12.0407 16.6967L12.7636 14.4017L10.8298 12.9699L13.2359 12.9482L14 10.6666L14.7641 12.9482L17.1702 12.9699L15.2364 14.4017L15.9593 16.6967L14 15.3Z"/><path fill="#FFDB3D" fill-rule="evenodd" d="M12.7636 14.4017L12.3733 15.6409L12.0407 16.6967L12.9421 16.0541L14 15.3L15.0579 16.0541L15.9593 16.6967L15.6267 15.6409L15.2364 14.4017L16.2805 13.6286L17.1702 12.9699L16.0633 12.9599L14.7641 12.9482L14.3515 11.7163L14 10.6666L13.6485 11.7163L13.2359 12.9482L11.9367 12.9599L10.8298 12.9699L12.7636 14.4017ZM12.8263 13.6186L13.5423 14.1487L13.2746 14.9983L14 14.4812L14.7253 14.9983L14.4577 14.1487L15.1736 13.6186L14.2829 13.6106L14 12.7659L13.7171 13.6106L12.8263 13.6186Z"/></g></svg>

<svg xmlns="http://www.w3.org/2000/svg" fill="none" viewBox="0 0 28 28" focusable="false"><path fill="none" d="M0 0h28v28H0z"/><rect width="28" height="20" y="4" fill="#FFF" rx="3"/><rect width="28" height="20" y="4" rx="3"/><mask id="Ethiopia_svg__a" width="28" height="20" x="0" y="4" mask-type="alpha" maskUnits="userSpaceOnUse"><rect width="28" height="20" y="4" fill="#FFF" rx="3"/><rect width="28" height="20" y="4" stroke="#979797" stroke-opacity="0" stroke-width="0" rx="3"/></mask><g mask="url(#Ethiopia_svg__a)"><path fill="#20AA46" fill-rule="evenodd" d="M0 10.66h28V4H0z"/><path d="M28 10.66V4H0v6.66z"/></g><g mask="url(#Ethiopia_svg__a)"><path fill="#E92F3B" fill-rule="evenodd" d="M0 24h28v-6.67H0z"/><path d="M28 24v-6.67H0V24z"/></g><g mask="url(#Ethiopia_svg__a)"><path fill="#FADF50" fill-rule="evenodd" d="M0 17.33h28v-6.67H0z"/><path d="M28 17.33v-6.67H0v6.67z"/></g><g mask="url(#Ethiopia_svg__a)"><path fill="#205CCA" fill-rule="evenodd" d="M14 18.66a4.665 4.665 0 1 0-.01-9.33 4.665 4.665 0 0 0 .01 9.33"/><path d="M18.66 14c0-2.58-2.09-4.67-4.66-4.67-2.58 0-4.67 2.09-4.67 4.67a4.665 4.665 0 0 0 9.33 0"/></g><g mask="url(#Ethiopia_svg__a)"><path fill="none" d="m14 15.3-1.96 1.39.72-2.29-1.94-1.44 2.41-.02.77-2.28.76 2.28 2.41.02-1.94 1.44.72 2.29z"/><path fill="#FFDB3D" fill-rule="evenodd" d="m12.76 14.4-.39 1.24-.33 1.05.9-.64L14 15.3l1.05.75.9.64-.33-1.05-.39-1.24 1.05-.78.89-.66h-1.11l-1.3-.02-.41-1.23-.35-1.05-.36 1.05-.41 1.23-1.3.02h-1.11zm.06-.79.72.53-.27.85.73-.51.72.51-.27-.85.72-.53h-.89l-.28-.85-.29.85z"/></g></svg>
